assets/img/icons/icon-eth.svg

<svg width="22" height="22" viewBox="0 0 22 22" fill="none" xmlns="http://www.w3.org/2000/svg">
<path d="M21.128 8.68819C21.303 8.47667 21.427 8.25056 21.4927 8.01716C20.3403 3.51687 16.2557 0.183594 11.3907 0.183594C5.62862 0.183594 0.960571 4.85164 0.960571 10.6138C0.960571 12.8165 1.64619 14.8588 2.80591 16.5436C2.95908 16.5947 3.12684 16.6166 3.30918 16.6093C3.67387 16.5947 4.03856 16.5655 4.39596 16.5218C4.87006 16.4634 5.10346 16.2008 5.11076 15.7194C5.11805 15.2964 5.11076 14.8661 5.11076 14.443C5.11076 13.0353 5.11076 11.6203 5.11076 10.2126C5.11076 9.57804 5.45357 9.19876 6.04437 9.16959C6.51847 9.1477 6.99256 9.16959 7.46666 9.18417C7.80947 9.19147 8.13769 9.31546 8.29086 9.6291C8.40027 9.84791 8.45133 10.1178 8.45133 10.3585C8.46592 12.0142 8.45862 13.6626 8.45862 15.3183C8.45862 15.4569 8.47321 15.6027 8.4805 15.7413C9.5454 15.6392 9.6621 15.3183 9.65481 14.5889C9.64022 12.6342 9.64752 10.6794 9.64752 8.71737C9.64752 8.4475 9.64022 8.18492 9.64752 7.91505C9.6694 7.27319 10.0487 6.9085 10.6832 6.89391C11.0698 6.88662 11.4637 6.89391 11.8503 6.89391C12.6453 6.90121 12.9881 7.23672 12.9881 8.02445C12.9881 9.9792 12.9881 11.9339 12.9881 13.896C12.9881 14.0346 12.9881 14.1804 12.9881 14.392C13.2725 14.2753 13.4914 14.1877 13.7102 14.1002C14.0238 13.9689 14.177 13.7209 14.2062 13.3927C14.2207 13.2468 14.2134 13.101 14.2134 12.9551C14.2134 10.5116 14.2134 8.06822 14.2134 5.62479C14.2134 4.99022 14.5708 4.63283 15.2054 4.62553C15.6576 4.61824 16.1026 4.62553 16.5548 4.62553C16.8684 4.62553 17.1529 4.72035 17.3133 4.98293C17.4373 5.18716 17.5103 5.45703 17.5103 5.69772C17.5248 7.616 17.5176 9.53428 17.5176 11.4598C17.5176 11.6057 17.5467 11.7516 17.5686 11.985C17.9844 11.6641 18.3272 11.4015 18.6627 11.1243C19.5744 10.4022 20.3986 9.59263 21.128 8.68819Z" fill="#997B5F"/>
<path d="M21.821 10.6138C21.821 10.4898 21.821 10.3658 21.8137 10.2418C20.3039 12.3424 18.4002 14.0127 16.212 15.3694C13.6519 16.9521 10.8802 18.0243 7.95542 18.71C7.14581 18.8996 6.3289 19.0528 5.49011 19.2205C7.16769 20.3656 9.20267 21.044 11.3908 21.044C17.1529 21.044 21.821 16.3759 21.821 10.6138Z" fill="#997B5F"/>
</svg>

<?xml version="1.0" encoding="utf-8"?>
<!-- Generator: Adobe Illustrator 26.0.1, SVG Export Plug-In . SVG Version: 6.00 Build 0)  -->
<svg version="1.1" id="Layer_1" xmlns="http://www.w3.org/2000/svg" xmlns:xlink="http://www.w3.org/1999/xlink" x="0px" y="0px"
	 viewBox="0 0 22 22" style="enable-background:new 0 0 22 22;" xml:space="preserve">
<style type="text/css">
	.st0{fill:#F5F5F5;}
</style>
<path class="st0" d="M21.1,8.7c0.2-0.2,0.3-0.4,0.4-0.7c-1.2-4.5-5.2-7.8-10.1-7.8C5.6,0.2,1,4.9,1,10.6c0,2.2,0.7,4.2,1.8,5.9
	c0.2,0.1,0.3,0.1,0.5,0.1c0.4,0,0.7,0,1.1-0.1c0.5-0.1,0.7-0.3,0.7-0.8c0-0.4,0-0.9,0-1.3c0-1.4,0-2.8,0-4.2c0-0.6,0.3-1,0.9-1
	c0.5,0,0.9,0,1.4,0c0.3,0,0.7,0.1,0.8,0.4c0.1,0.2,0.2,0.5,0.2,0.7c0,1.7,0,3.3,0,5c0,0.1,0,0.3,0,0.4c1.1-0.1,1.2-0.4,1.2-1.2
	c0-2,0-3.9,0-5.9c0-0.3,0-0.5,0-0.8c0-0.6,0.4-1,1-1c0.4,0,0.8,0,1.2,0C12.6,6.9,13,7.2,13,8c0,2,0,3.9,0,5.9c0,0.1,0,0.3,0,0.5
	c0.3-0.1,0.5-0.2,0.7-0.3c0.3-0.1,0.5-0.4,0.5-0.7c0-0.1,0-0.3,0-0.4c0-2.4,0-4.9,0-7.3c0-0.6,0.4-1,1-1c0.5,0,0.9,0,1.3,0
	c0.3,0,0.6,0.1,0.8,0.4c0.1,0.2,0.2,0.5,0.2,0.7c0,1.9,0,3.8,0,5.8c0,0.1,0,0.3,0.1,0.5c0.4-0.3,0.8-0.6,1.1-0.9
	C19.6,10.4,20.4,9.6,21.1,8.7z"/>
<path class="st0" d="M21.8,10.6c0-0.1,0-0.2,0-0.4c-1.5,2.1-3.4,3.8-5.6,5.1C13.7,17,10.9,18,8,18.7c-0.8,0.2-1.6,0.3-2.5,0.5
	c1.7,1.1,3.7,1.8,5.9,1.8C17.2,21,21.8,16.4,21.8,10.6z"/>
</svg>
